X:1
T:Title
%%score { ( 1 4 ) | ( 2 3 ) }
L:1/8
Q:1/4=106
M:3/4
K:F
V:1 treble nm="Grand Piano"
V:4 treble 
V:2 bass 
V:3 bass 
V:1
 A4 _A2 | A2 B2 [CFA]2 | [CFA]4 [B,CE]2 | [A,CF]6 | [B,EG]4 [B,EG]2 | F2- [FG]2 A2 | A4 =B2 | %7
w: J.~E.~Delmarter *|||||||
 [Ec]6 | A4 _A2 | A2 B2 [CFA]2 | [CFA]4 [B,CE]2 | [A,F]6 | [Cc]4 [_Ec]2 | [DB]4 [^CF]2 | A4 G2 | %15
w: ||||||||
 F6 |] %16
w: |
V:2
 [F,CF]4 [F,=B,F]2 | C2 z2 z2 | C,4 C,2 | F,6 | C,4 C,2 | z2 B,2[K:treble] [F,CF]2 | %6
 [G,=B,F]4 [G,DF]2 | [C,C]6 | [F,CF]4 [F,=B,F]2 | C2 z2 z2 | C,4 C,2 | D,6 | [A,,F,]4 [A,,F,]2 | %13
 [B,,F,]4 [B,,F,]2 | [C,F,C]4 [C,B,C]2 | [F,A,C]6 |] %16
V:3
 x6 | [F,F]2- [F,DF]2 F,2 | x6 | x6 | x6 | F,4[K:treble] z2 | x6 | x6 | x6 | [F,F]2- [F,DF]2 F,2 | %10
 x6 | x6 | x6 | x6 | x6 | x6 |] %16
V:4
 x6 | x6 | x6 | x6 | x6 | A,2 z2 z2 | x6 | x6 | x6 | x6 | x6 | x6 | x6 | x6 | x6 | x6 |] %16

